.local/share/icons/Gruvbox-Plus-Dark/mimetypes/scalable/application-vnd.openxmlformats-officedocument.wordprocessingml.document.svg

<svg width="256" height="256" viewBox="0 0 256 256" fill="none" xmlns="http://www.w3.org/2000/svg">
<g opacity="0.4" filter="url(#filter0_f)">
<path d="M55.0839 15.5636H155.608L216.009 75.7129L216.011 224.609C216.011 233.52 208.749 240.737 199.838 240.737H55.0838C46.1734 240.737 39 233.564 39 224.654V31.6474C39 22.737 46.1734 15.5636 55.0838 15.5636H55.0839Z" fill="#282828"/>
</g>
<path d="M55.0839 15H155.608L216.009 75.1493L216.011 224.045C216.011 232.956 208.749 240.174 199.838 240.174H55.0838C46.1734 240.174 39 233 39 224.09V31.0838C39 22.1734 46.1734 15 55.0838 15H55.0839Z" fill="#ebdbb2"/>
<path opacity="0.2" d="M199.838 240.174C208.749 240.174 216.011 232.956 216.011 224.046L216.01 186.5H39V224.09C39 233 46.1734 240.174 55.0838 240.174H199.838Z" fill="url(#paint0_linear)"/>
<path fill-rule="evenodd" clip-rule="evenodd" d="M155.608 20.3191H55.0839C49.1112 20.3191 44.3191 25.1111 44.3191 31.0838V224.09C44.3191 230.063 49.1111 234.855 55.0838 234.855H199.838C205.83 234.855 210.692 229.999 210.692 224.046V75.1493L155.608 20.3191ZM155.608 15H55.0839C46.1735 15 39 22.1734 39 31.0838V224.09C39 233 46.1734 240.174 55.0838 240.174H199.838C208.749 240.174 216.011 232.956 216.011 224.045L216.009 75.1493L155.608 15Z" fill="url(#paint1_linear)"/>
<path d="M76.4078 198V226H84.8878C95.1678 226 98.5278 218.4 98.5278 212C98.5278 205.04 94.8478 198 85.0478 198H76.4078ZM85.5678 221.48H81.2078V202.52H86.0078C91.3278 202.52 93.5678 207.28 93.5678 212C93.5678 216.4 91.5278 221.48 85.5678 221.48ZM115.618 226.48C124.658 226.48 127.898 218.92 127.898 212C127.898 205.08 124.658 197.52 115.618 197.52C106.618 197.52 103.338 205.08 103.338 212C103.338 218.92 106.618 226.48 115.618 226.48ZM115.618 221.88C110.178 221.88 108.298 216.56 108.298 212C108.298 207.68 110.178 202.12 115.618 202.12C121.058 202.12 122.938 207.4 122.938 212C122.938 216.28 121.018 221.88 115.618 221.88ZM144.433 226.48C149.433 226.48 152.513 223.8 154.233 219.92L149.793 218.24C148.513 220.36 146.953 221.84 144.433 221.84C139.713 221.84 137.673 216.64 137.673 212C137.673 207.6 139.273 202.12 144.433 202.12C147.073 202.12 148.473 203.32 149.873 205.44L154.193 203.48C152.993 200.52 149.753 197.52 144.433 197.52C135.793 197.52 132.713 205.56 132.713 212C132.713 218.92 135.713 226.48 144.433 226.48ZM174.636 226H180.196L171.356 211.52L179.636 198H174.076L168.596 207L163.116 198H157.556L165.796 211.52L156.956 226H162.516L168.596 216.08L174.636 226Z" fill="url(#paint2_linear)"/>
<path d="M135.999 52.0025V56.0013H183.999V52.0025H135.999ZM135.999 68.0014V72.0001H183.999V68.0014H135.999ZM135.999 84V88.003H183.999V84H135.999ZM135.999 100.003V104.002H183.999V100.003H135.999ZM72 116.002V120H183.999V116.002H72ZM72 132V136.003H183.999V132H72ZM72 148.003V152.002H183.999V148.003H72ZM72 164.002V168.001H144V164.002H72Z" fill="#665c54"/>
<path d="M96.5784 48L76.8492 100.003H72V104.002H85.9994V100.003H81.5169L86.1922 87.991H109.395L114.063 100.003H108.008V104.002H128.092V100.003H122.551L102.811 48H96.5784ZM97.7916 57.0029L108.008 84.012H87.7494L97.7916 57.0029Z" fill="url(#paint3_linear)"/>
<path opacity="0.25" d="M155.608 17V61.2306C155.608 70.141 162.867 77.1605 171.777 77.1605L216.009 77.1493V75.1493L155.608 17Z" fill="#282828"/>
<path d="M155.608 15V59.2306C155.608 68.141 162.867 75.1605 171.777 75.1605L216.009 75.1493L155.608 15Z" fill="url(#paint4_linear)"/>
<defs>
<filter id="filter0_f" x="23.8778" y="0.441412" width="207.255" height="255.418" filterUnits="userSpaceOnUse" color-interpolation-filters="sRGB">
<feFlood flood-opacity="0" result="BackgroundImageFix"/>
<feBlend mode="normal" in="SourceGraphic" in2="BackgroundImageFix" result="shape"/>
<feGaussianBlur stdDeviation="7.5611" result="effect1_foregroundBlur"/>
</filter>
<linearGradient id="paint0_linear" x1="127.506" y1="186.5" x2="127.506" y2="240.174" gradientUnits="userSpaceOnUse">
<stop stop-color="#83a598"/>
<stop offset="1" stop-color="#076678"/>
</linearGradient>
<linearGradient id="paint1_linear" x1="127.506" y1="15" x2="127.506" y2="240.174" gradientUnits="userSpaceOnUse">
<stop stop-color="#83a598"/>
<stop offset="1" stop-color="#076678"/>
</linearGradient>
<linearGradient id="paint2_linear" x1="127.5" y1="187" x2="127.5" y2="240" gradientUnits="userSpaceOnUse">
<stop stop-color="#83a598"/>
<stop offset="1" stop-color="#076678"/>
</linearGradient>
<linearGradient id="paint3_linear" x1="72" y1="48" x2="72" y2="104.002" gradientUnits="userSpaceOnUse">
<stop offset="1e-07" stop-color="#83a598"/>
<stop offset="1" stop-color="#076678"/>
</linearGradient>
<linearGradient id="paint4_linear" x1="185.808" y1="15" x2="185.808" y2="75.1605" gradientUnits="userSpaceOnUse">
<stop stop-color="#83a598"/>
<stop offset="1" stop-color="#076678"/>
</linearGradient>
</defs>
</svg>

<svg width="256" height="256" fill="none" version="1.1" viewBox="0 0 256 256" xmlns="http://www.w3.org/2000/svg">
  <path d="m55.08 15h100.5l60.4 60.15 2e-3 148.9c0 8.911-7.262 16.13-16.17 16.13h-144.8c-8.91 0-16.08-7.174-16.08-16.08v-193c0-8.91 7.173-16.08 16.08-16.08h1e-4z" fill="#ebdbb2"/>
  <path d="m199.8 240.2c8.911 0 16.17-7.218 16.17-16.13l-1e-3 -37.55h-177v37.59c0 8.91 7.173 16.08 16.08 16.08h144.8z" fill="url(#paint0_linear)" opacity=".2"/>
  <path d="m155.6 20.32h-100.5c-5.973 0-10.76 4.792-10.76 10.76v193c0 5.973 4.792 10.76 10.76 10.76h144.8c5.992 0 10.85-4.856 10.85-10.81v-148.9l-55.08-54.83zm0-5.319h-100.5c-8.91 0-16.08 7.173-16.08 16.08v193c0 8.91 7.173 16.08 16.08 16.08h144.8c8.911 0 16.17-7.218 16.17-16.13l-2e-3 -148.9-60.4-60.15z" clip-rule="evenodd" fill="url(#paint1_linear)" fill-rule="evenodd"/>
  <path d="m76.41 198v28h8.48c10.28 0 13.64-7.6 13.64-14 0-6.96-3.68-14-13.48-14h-8.64zm9.16 23.48h-4.36v-18.96h4.8c5.32 0 7.56 4.76 7.56 9.48 0 4.4-2.04 9.48-8 9.48zm30.05 5c9.04 0 12.28-7.56 12.28-14.48s-3.24-14.48-12.28-14.48c-9 0-12.28 7.56-12.28 14.48s3.28 14.48 12.28 14.48zm0-4.6c-5.44 0-7.32-5.32-7.32-9.88 0-4.32 1.88-9.88 7.32-9.88s7.32 5.28 7.32 9.88c0 4.28-1.92 9.88-7.32 9.88zm28.82 4.6c5 0 8.08-2.68 9.8-6.56l-4.44-1.68c-1.28 2.12-2.84 3.6-5.36 3.6-4.72 0-6.76-5.2-6.76-9.84 0-4.4 1.6-9.88 6.76-9.88 2.64 0 4.04 1.2 5.44 3.32l4.32-1.96c-1.2-2.96-4.44-5.96-9.76-5.96-8.64 0-11.72 8.04-11.72 14.48 0 6.92 3 14.48 11.72 14.48zm30.2-0.48h5.56l-8.84-14.48 8.28-13.52h-5.56l-5.48 9-5.48-9h-5.56l8.24 13.52-8.84 14.48h5.56l6.08-9.92 6.04 9.92z" fill="url(#paint2_linear)"/>
  <path d="m136 52v3.999h48v-3.999h-48zm0 16v3.999h48v-3.999h-48zm0 16v4.003h48v-4.003h-48zm0 16v3.999h48v-3.999h-48zm-64 16v3.998h112v-3.998h-112zm0 16v4.003h112v-4.003h-112zm0 16v3.999h112v-3.999h-112zm0 16v3.999h72v-3.999h-72z" fill="#665c54"/>
  <path d="m96.58 48-19.73 52h-4.849v3.999h14v-3.999h-4.482l4.675-12.01h23.2l4.668 12.01h-6.055v3.999h20.08v-3.999h-5.541l-19.74-52h-6.233zm1.213 9.003 10.22 27.01h-20.26l10.04-27.01z" fill="url(#paint3_linear)"/>
  <path d="m155.6 17v44.23c0 8.91 7.259 15.93 16.17 15.93l44.23-0.0112v-2l-60.4-58.15z" fill="#282828" opacity=".25"/>
  <path d="m155.6 15v44.23c0 8.91 7.259 15.93 16.17 15.93l44.23-0.0112-60.4-60.15z" fill="url(#paint4_linear)"/>
  <defs>
    <linearGradient id="paint0_linear" x1="127.5" x2="127.5" y1="186.5" y2="240.2" gradientUnits="userSpaceOnUse">
      <stop stop-color="#83a598" offset="0"/>
      <stop stop-color="#076678" offset="1"/>
    </linearGradient>
    <linearGradient id="paint1_linear" x1="127.5" x2="127.5" y1="15" y2="240.2" gradientUnits="userSpaceOnUse">
      <stop stop-color="#83a598" offset="0"/>
      <stop stop-color="#076678" offset="1"/>
    </linearGradient>
    <linearGradient id="paint2_linear" x1="127.5" x2="127.5" y1="187" y2="240" gradientUnits="userSpaceOnUse">
      <stop stop-color="#83a598" offset="0"/>
      <stop stop-color="#076678" offset="1"/>
    </linearGradient>
    <linearGradient id="paint3_linear" x1="72" x2="72" y1="48" y2="104" gradientUnits="userSpaceOnUse">
      <stop stop-color="#83a598" offset="1e-7"/>
      <stop stop-color="#076678" offset="1"/>
    </linearGradient>
    <linearGradient id="paint4_linear" x1="185.8" x2="185.8" y1="15" y2="75.16" gradientUnits="userSpaceOnUse">
      <stop stop-color="#83a598" offset="0"/>
      <stop stop-color="#076678" offset="1"/>
    </linearGradient>
  </defs>
</svg>
